img/d/dominodatalab.com.svg

<svg xmlns="http://www.w3.org/2000/svg" width="866.084" height="866.084"><g fill="#ff0" stroke-width="56" stroke-linecap="round"><path d="m404.78 137.54 163.261-94.259" stroke="#5188c7"/><path d="M556.318 162.999h188.517m-70.011 97.817 163.26 94.258m-109.54 49.706 94.259 163.261m-119.718-11.723v188.517m-97.816-70.011-94.26 163.26m-49.705-109.54-163.26 94.259m11.722-119.718H121.25m70.01-97.816L28 511.009m109.54-49.705-94.259-163.26m119.718 11.723V121.249m97.817 70.011L355.074 28" stroke="#5a5f6a"/></g></svg>

<svg xmlns="http://www.w3.org/2000/svg" width="866.084" height="866.084"><g fill="#ff0" stroke-width="56" stroke-linecap="round"><path d="M404.78 137.54l163.261-94.259" stroke="#5188c7"/><path d="M556.318 162.999h188.517M674.824 260.816l163.26 94.258M728.544 404.78l94.259 163.261M703.085 556.318v188.517M605.269 674.824l-94.26 163.26M461.304 728.544l-163.26 94.259M309.766 703.085H121.25M191.26 605.269L28 511.009M137.54 461.304l-94.259-163.26M162.999 309.767V121.249M260.816 191.26L355.074 28" stroke="#5a5f6a"/></g></svg>
